flaticon/office/briefcase-4.svg

<svg xmlns="http://www.w3.org/2000/svg" width="32" height="32" viewBox="0 0 24 24">
    <path d="M 22.246094 20.046875 C 23.25 19.898438 24 19.050781 24 18 L 24 16.757812 C 24 16.511719 23.835938 16.34375 23.585938 16.34375 L 22.34375 16.34375 L 22.34375 15.929688 C 22.34375 15.476562 21.972656 15.101562 21.515625 15.101562 L 19.863281 15.101562 L 19.863281 6.828125 C 19.863281 5.460938 18.746094 4.34375 17.378906 4.34375 L 14.898438 4.34375 L 14.898438 3.515625 C 14.898438 3.269531 14.730469 3.101562 14.484375 3.101562 L 14.457031 3.101562 C 14.25 1.476562 12.851562 0.207031 11.171875 0.207031 L 8.691406 0.207031 C 7.007812 0.207031 5.613281 1.476562 5.40625 3.101562 L 5.378906 3.101562 C 5.132812 3.101562 4.964844 3.269531 4.964844 3.515625 L 4.964844 4.34375 L 2.484375 4.34375 C 1.117188 4.34375 0 5.460938 0 6.828125 L 0 16.757812 C 0 18.125 1.117188 19.242188 2.484375 19.242188 L 14.070312 19.242188 C 14.070312 20.25 14.527344 21.15625 15.246094 21.765625 L 13.28125 21.765625 C 13.117188 21.765625 12.992188 21.847656 12.910156 21.972656 C 12.828125 22.097656 12.828125 22.261719 12.910156 22.386719 C 13.488281 23.253906 14.484375 23.792969 15.558594 23.792969 L 20.855469 23.792969 C 21.929688 23.792969 22.925781 23.253906 23.585938 22.386719 C 23.667969 22.261719 23.667969 22.097656 23.585938 21.972656 C 23.503906 21.847656 23.378906 21.765625 23.214844 21.765625 L 21.167969 21.765625 C 21.691406 21.324219 22.074219 20.726562 22.246094 20.046875 Z M 22.179688 22.550781 C 21.808594 22.800781 21.351562 22.964844 20.855469 22.964844 L 15.558594 22.964844 C 15.101562 22.964844 14.605469 22.800781 14.234375 22.550781 Z M 23.171875 17.171875 L 23.171875 18 C 23.171875 18.539062 22.839844 18.992188 22.34375 19.160156 L 22.34375 17.171875 Z M 19.035156 6.828125 L 19.035156 15.101562 L 16.550781 15.101562 L 16.550781 7.242188 L 16.964844 7.242188 C 17.214844 7.242188 17.378906 7.074219 17.378906 6.828125 L 17.378906 5.171875 C 18.289062 5.171875 19.035156 5.917969 19.035156 6.828125 Z M 16.550781 5.171875 L 16.550781 6.414062 L 15.722656 6.414062 L 15.722656 5.171875 Z M 8.277344 4.34375 L 8.277344 3.515625 C 8.277344 3.304688 8.15625 3.15625 7.96875 3.113281 C 8.109375 2.863281 8.378906 2.691406 8.691406 2.691406 L 11.171875 2.691406 C 11.480469 2.691406 11.753906 2.863281 11.894531 3.113281 C 11.707031 3.15625 11.585938 3.304688 11.585938 3.515625 L 11.585938 4.34375 Z M 12.414062 3.929688 L 14.070312 3.929688 L 14.070312 4.34375 L 12.414062 4.34375 Z M 8.691406 1.035156 L 11.171875 1.035156 C 12.414062 1.035156 13.40625 1.945312 13.613281 3.101562 L 12.785156 3.101562 C 12.578125 2.398438 11.957031 1.863281 11.171875 1.863281 L 8.691406 1.863281 C 7.902344 1.863281 7.242188 2.398438 7.074219 3.101562 L 6.25 3.101562 C 6.457031 1.945312 7.449219 1.035156 8.691406 1.035156 Z M 5.792969 3.929688 L 7.449219 3.929688 L 7.449219 4.34375 L 5.792969 4.34375 Z M 4.550781 5.171875 L 4.550781 6.414062 L 3.722656 6.414062 L 3.722656 5.171875 Z M 0.828125 16.757812 L 0.828125 6.828125 C 0.828125 5.917969 1.574219 5.171875 2.484375 5.171875 L 2.898438 5.171875 L 2.898438 6.828125 C 2.898438 7.074219 3.0625 7.242188 3.308594 7.242188 L 3.722656 7.242188 L 3.722656 18.414062 L 2.484375 18.414062 C 1.574219 18.414062 0.828125 17.667969 0.828125 16.757812 Z M 4.550781 18.414062 L 4.550781 7.242188 L 4.964844 7.242188 C 5.214844 7.242188 5.378906 7.074219 5.378906 6.828125 L 5.378906 5.171875 L 14.898438 5.171875 L 14.898438 6.828125 C 14.898438 7.074219 15.0625 7.242188 15.308594 7.242188 L 15.722656 7.242188 L 15.722656 15.101562 L 14.898438 15.101562 C 14.441406 15.101562 14.070312 15.476562 14.070312 15.929688 L 14.070312 18.414062 Z M 14.898438 19.242188 L 14.898438 15.929688 L 21.515625 15.929688 L 21.515625 19.242188 C 21.515625 19.367188 21.476562 19.488281 21.476562 19.613281 C 21.476562 19.632812 21.476562 19.652344 21.480469 19.671875 C 21.273438 20.832031 20.253906 21.722656 19.035156 21.722656 L 17.378906 21.722656 C 16.015625 21.722656 14.898438 20.605469 14.898438 19.242188 Z M 14.898438 19.242188"/>
    <path d="M 17.378906 20.898438 C 17.628906 20.898438 17.792969 20.730469 17.792969 20.484375 C 17.792969 20.234375 17.628906 20.070312 17.378906 20.070312 C 16.925781 20.070312 16.550781 19.695312 16.550781 19.242188 C 16.550781 18.992188 16.386719 18.828125 16.136719 18.828125 C 15.890625 18.828125 15.722656 18.992188 15.722656 19.242188 C 15.722656 20.152344 16.46875 20.898438 17.378906 20.898438 Z M 17.378906 20.898438"/>
</svg>

<svg xmlns="http://www.w3.org/2000/svg" width="32" height="32" viewBox="0 0 24 24">
    <path d="M22.246 20.047A2.048 2.048 0 0 0 24 18v-1.242c0-.246-.164-.414-.414-.414h-1.242v-.414a.831.831 0 0 0-.828-.828h-1.653V6.828a2.49 2.49 0 0 0-2.484-2.484h-2.48v-.828a.394.394 0 0 0-.415-.414h-.027A3.325 3.325 0 0 0 11.172.207h-2.48a3.322 3.322 0 0 0-3.286 2.895H5.38a.394.394 0 0 0-.414.414v.828h-2.48A2.49 2.49 0 0 0 0 6.828v9.93a2.49 2.49 0 0 0 2.484 2.484H14.07c0 1.008.457 1.914 1.176 2.524h-1.965a.431.431 0 0 0-.37.207.38.38 0 0 0 0 .414 3.189 3.189 0 0 0 2.648 1.406h5.296c1.075 0 2.07-.54 2.73-1.406a.38.38 0 0 0 0-.414.431.431 0 0 0-.37-.207h-2.047a3.312 3.312 0 0 0 1.078-1.72zm-.066 2.504c-.371.25-.828.414-1.325.414H15.56c-.457 0-.954-.164-1.325-.414zm.992-5.38V18c0 .54-.332.992-.828 1.16v-1.988zM19.035 6.829v8.274h-2.484v-7.86h.414c.25 0 .414-.168.414-.414V5.172c.91 0 1.656.746 1.656 1.656zm-2.484-1.656v1.242h-.828V5.172zm-8.274-.828v-.828c0-.211-.12-.36-.308-.403.14-.25.41-.422.722-.422h2.48c.31 0 .583.172.724.422-.188.043-.31.192-.31.403v.828zm4.137-.414h1.656v.414h-1.656zM8.691 1.035h2.48c1.243 0 2.235.91 2.442 2.067h-.828c-.207-.704-.828-1.239-1.613-1.239h-2.48c-.79 0-1.45.535-1.618 1.239H6.25c.207-1.157 1.2-2.067 2.441-2.067zM5.793 3.93h1.656v.414H5.793zM4.551 5.172v1.242h-.828V5.172zM.828 16.758v-9.93c0-.91.746-1.656 1.656-1.656h.414v1.656c0 .246.164.414.41.414h.415v11.172H2.484c-.91 0-1.656-.746-1.656-1.656zm3.723 1.656V7.242h.414c.25 0 .414-.168.414-.414V5.172h9.52v1.656c0 .246.164.414.41.414h.414v7.86h-.825a.831.831 0 0 0-.828.828v2.484zm10.347.828V15.93h6.618v3.312c0 .125-.04.246-.04.371 0 .02 0 .04.004.059a2.494 2.494 0 0 1-2.445 2.05H17.38a2.489 2.489 0 0 1-2.48-2.48zm0 0"/>
    <path d="M17.379 20.898c.25 0 .414-.168.414-.414 0-.25-.164-.414-.414-.414a.834.834 0 0 1-.828-.828c0-.25-.164-.414-.414-.414-.246 0-.414.164-.414.414 0 .91.746 1.656 1.656 1.656zm0 0"/>
</svg>
